X: 36040
T: Scarce O' Tatties
R: jig
M: 6/8
K: Adorian
e|:A>ee e>fg|e>dB d>BG|A>ee e>fg|e>dB A2e|
a2 a g>ag|f>gf e>AA|A>ee e>fg|e>dB A2e:|
|:a>eg a2f|g2f e>AA|a>eg a2f|g>fg e>ee|
e>de A>AA|d>ef f>ed|A>ee e>fg|e>dB A2e:|

